X: 1787
T: Paddy Godden's Lilted Schottische
B: australian traditional tunes wiki
M:4/4
L:1/8
R: Schottische
Q: 1/4=100
K:D
V:1 
(3dcB|"D"A>a f>d A>a (3afa|b>a f>d "G"B3A|"D"(3fgf =f>^f "G"b>a g>f|"E"e2B2^A2=A2|
"A"e4f3e/f/|"G"g2B2"A7"c3B|A>a g>e B2c2|"D"d6d>B|
"D"A>a f>d A>a f>d|"G"B>b g>eB4|"A"(3ccb a>g B2 c>e|"D"d>c d<fA2 F>G|
"D"A>a f>d A>a f<d|"G"B>b g<eB4|"A"(3cec c>B A>a B>c|"D"d2d2d2z2||
% abcbook-tune_id 6342d53a4744820a293bf047


% abcbook-boost 0
% abcbook-tablature 
% abcbook-transpose 
% abcbook-lastupdated 1665324383870
% abcbook-soundfonts 
% abcbook-repeats 1
% NFF Book 2006

